src/assets/images/toolbox/momentjs.svg

<svg
  width="32"
  height="32"
  viewBox="0 0 32 32"
  fill="transparent"
  xmlns="http://www.w3.org/2000/svg">
  <path
    fill="#376660"
    d="M16 32C24.8365 32 32 24.8365 32 16C32 7.1635 24.8365 0 16 0C7.1635 0 0 7.1635 0 16C0 24.8365 7.1635 32 16 32ZM16 29.6C8.48887 29.6 2.4 23.5111 2.4 16C2.4 8.48887 8.48887 2.4 16 2.4C23.5111 2.4 29.6 8.48887 29.6 16C29.6 23.5111 23.5111 29.6 16 29.6Z"
  />
  <path
    fill="#529990"
    fill-rule="evenodd"
    d="M16 28.8C23.0693 28.8 28.8 23.0693 28.8 16C28.8 8.93075 23.0693 3.2 16 3.2C8.93075 3.2 3.2 8.93075 3.2 16C3.2 23.0693 8.93075 28.8 16 28.8ZM16 4C15.5581 4 15.2 4.36 15.2 4.8055V15.2H9.59762C9.49265 15.1999 9.38869 15.2205 9.29172 15.2607C9.19475 15.3009 9.10667 15.3599 9.03256 15.4342C8.95844 15.5086 8.89974 15.5968 8.85983 15.6939C8.81992 15.791 8.79959 15.895 8.8 16C8.8 16.4419 9.1645 16.8 9.59625 16.8H16.8V4.80075C16.8003 4.69557 16.7798 4.59136 16.7398 4.49412C16.6997 4.39688 16.6408 4.30851 16.5664 4.2341C16.4921 4.15969 16.4038 4.10071 16.3066 4.06053C16.2094 4.02036 16.1052 3.99979 16 4Z"
  />
</svg>

<svg xmlns="http://www.w3.org/2000/svg" width="32" height="32" fill="transparent" xmlns:v="https://vecta.io/nano">
  <path fill="#376660"
    d="M16 32c8.837 0 16-7.163 16-16S24.837 0 16 0 0 7.164 0 16s7.164 16 16 16zm0-2.4C8.489 29.6 2.4 23.511 2.4 16S8.489 2.4 16 2.4 29.6 8.489 29.6 16 23.511 29.6 16 29.6z" />
  <path fill="#529990" fill-rule="evenodd"
    d="M16 28.8c7.069 0 12.8-5.731 12.8-12.8S23.069 3.2 16 3.2 3.2 8.931 3.2 16 8.931 28.8 16 28.8zM16 4c-.442 0-.8.36-.8.806V15.2H9.598c-.105 0-.209.021-.306.061s-.185.099-.259.174a.8.8 0 0 0-.173.26c-.04.097-.06.201-.06.306 0 .442.364.8.796.8H16.8V4.801a.8.8 0 0 0-.234-.567A.8.8 0 0 0 16 4z" />
</svg>
